Invest/static/Invest/img/searchline/findbutton.svg

<?xml version="1.0" ?><svg enable-background="new 0 0 32 32" id="Glyph" version="1.1" viewBox="0 0 32 32" xml:space="preserve" xmlns="http://www.w3.org/2000/svg" xmlns:xlink="http://www.w3.org/1999/xlink"><path d="M27.414,24.586l-5.077-5.077C23.386,17.928,24,16.035,24,14c0-5.514-4.486-10-10-10S4,8.486,4,14  s4.486,10,10,10c2.035,0,3.928-0.614,5.509-1.663l5.077,5.077c0.78,0.781,2.048,0.781,2.828,0  C28.195,26.633,28.195,25.367,27.414,24.586z M7,14c0-3.86,3.14-7,7-7s7,3.14,7,7s-3.14,7-7,7S7,17.86,7,14z" id="XMLID_223_"/></svg>

<svg width="32" height="32" viewBox="0 0 32 32" fill="none" xmlns="http://www.w3.org/2000/svg">
<path d="M27.414 24.586L22.337 19.509C23.386 17.928 24 16.035 24 14C24 8.486 19.514 4 14 4C8.486 4 4 8.486 4 14C4 19.514 8.486 24 14 24C16.035 24 17.928 23.386 19.509 22.337L24.586 27.414C25.366 28.195 26.634 28.195 27.414 27.414C28.195 26.633 28.195 25.367 27.414 24.586ZM7 14C7 10.14 10.14 7 14 7C17.86 7 21 10.14 21 14C21 17.86 17.86 21 14 21C10.14 21 7 17.86 7 14Z" fill="white"/>
</svg>
